X:1
T:Lo, the Winter Is Past
T:Lo, the Winter Is Past
T:Arthur M. F. Custance
T:Arthur M. F. Custance, 1902
T:Public Domain Courtesy of the Cyber Hymnal™
C:Arthur M. F. Custance
Z:Public Domain
Z:Courtesy of the Cyber Hymnal™
%%score ( 1 2 ) ( 3 4 )
L:1/8
Q:1/4=95
M:4/4
K:C
V:1 treble 
V:2 treble 
V:3 bass 
V:4 bass 
V:1
 [CE][CE][CE][CE] [CE]2 [CE]2 | [DF]2 [DF]2 z4 | [DF][DF][DF][CF] [B,F]2 [DF]2 | %3
w: 1.~Na- ture from her sleep is|wak- ing,|From her i- cy bond- age|
w: 2.~In our hearts new joy is|dawn- ing,|On this hap- py Eas- ter|
w: 3.~Christ with pow’rs of Death hath|striv- en,|To the world new life hath|
!<(! [^D^F]4!<)!!>(! [EG]2!>)! z2 | [EG][EG][EG][EG] [EG]2 [E^G]2 | [EA]4 [Ec]4 || %6
w: break- ing,|Ver- nal life and beau- ty|tak- ing,|
w: morn- ing,|Ev- ery life with hope a-|dorn- ing,|
w: giv- en,|Op’n- ing wide the gates of|Hea- ven,|
"^Chorus" [GB]3 [GB] [^Fd]2 [FA][FB] | G4 z4 | %8
w: Lo, the win- ter is|past.|
w: Lo! the win- ter is|past!|
w: Lo! the win- ter is|past.|
"^Quartet or Semi-Chorus" [_EG][EG][EG][EG] [EG]2 [EG]2 | [F_A]2 [FA]2 z4 | %10
w: Birds their car- ols sweet are|sing- ing|
w: Gone are Len- ten gloom and|sad- ness,|
w: Sing we to our Lord most|glor- ious,|
 [_EG][EG][EG][EG] [EG]2 [GA]2 |!<(! [GB]4 [GB]4!<)! |"^Chorus" [Gc]3 [Gc] [Ac]2 [Fc][Dc] | %13
w: Trees and flow’rs their frag- rance|bring- ing,|Lo, the win- ter is|
w: Bright our path with Eas- ter|glad- ness,|Lo! the win- ter is|
w: Ris- ing o- ver Death vic-|tor- ious,|Lo! the win- ter is|
 e4 z2 z2 x4 | [Gc]3 [EG] [CE]2 [B,F][B,D] | C8 |] %16
w: past,|Lo, the win- ter is|past.|
w: past!|Lo! the win- ter is|past!|
w: past!|Lo! the win- ter is|past!|
V:2
 x8 | x8 | x8 | x8 | x8 | x8 || x8 | G4 x4 | x8 | x8 | x8 | x8 | x8 | D2 E4 c4 ^F2 | x8 | C8 |] %16
V:3
 [C,G,][C,G,][C,A,][C,B,] [G,,D]2 [G,,C]2 | [D,C]2 [D,B,]2 [G,,F,B,]2 [G,,F,B,]2 | %2
 [D,G,][D,G,][D,B,][D,C] [G,,D]2 [G,,B,]2 |!<(! [C,A,]4!<)!!>(! [C,G,]2!>)! z2 | %4
 [C,G,][C,G,][C,A,][C,B,] [C,C]2 [B,,D]2 | (z [A,C]4) x3 || [D,D]3 [D,D] [D,A,]2 [D,C][D,D] | %7
 [G,B,]4 [G,,G,]2 [F,,F,]2 | [_E,,_E,_B,][E,B,][E,C][E,D] [_B,,F]2 [B,,_E]2 | %9
 [F,_E]2 ([F,D]2 [_B,,_A,D]2 [B,,A,C]2) | [_E,_B,][E,B,][E,C][E,D] [E,_E]2 [C,E]2 | D4 D4 | %12
 [E,C]3 [E,C] [F,C]2 [F,A,][F,A,] | ([E,^G,]2 [G,B,]2 C2 D2) x4 | %14
 [G,E]3 [G,C] [G,,G,]2 [G,,D,][G,,F,] | [C,E,]8 |] %16
V:4
 x8 | x8 | x8 | x8 | x8 | (C4 A,,C,E,) x || x8 | x8 | x8 | x8 | x8 | (G,,2 D,2) (G,2 F,2) | x8 | %13
 x4 A,4 x4 | x8 | x8 |] %16

